X:59
T:Old Throw the Wood Laddie
M:3/4
L:1/8
Q:1/4=140
S:Belper Militia
A:Belper, Derby
B:Thomas Reeve
K:G
G3/2D/ |E3 F GA |B4 gd |e3/2f/ ge dB |
A4 GA |B3 c BA |B3/2A/ G2 GA |BA Bc BA |
BA GF GD |E2 EF GA |B4 ga |b/a/g/f/ g/f/e/d/ e/d/c/B/ |
A3 B cd |ef ge dB |d3/2e/ dc BA |B2 D3/2G/ F3/2A/ |G4:: 
gd |e3 f ga |b4 ga |b2 c'b ag |a4 ga |b3 a bc' |ba g2 ga |
b3 a bc' |ba g2 gd |e3 f ga |b4 ga |b/a/g/f/ g/f/e/d/ e/d/c/B/ |
A3 B cd |e3/2f/ ge dB |d3/2e/ dc BA |B2 D3/2G/ F3/2A/ |G2 |]
 

